!!!OTL: Dominus natus est
**kern
*staff1
=1-
*clefF4
*k[]
*met(c|)
*M2/2
1F
1F
=2
0C
=3
1E
0E
1F
=4
1E
1C
=5
1C
0FF
0FF
!!linebreak:original
=6
1F
1F
1E
=7
1D
1C
=8
1C
0C
1AA
=9
1C
1D
=10
1C
0FF
0FF
==
*-
!!title: @{OTL}, @{GTL}, ed. @{ENC}
!!!pag:
!!!GTL: Hymnbook D
!!!EFL: 
!!!YEM: Creative Commons CC/BY/NC/SA 4.0
!!!ENC: Marcin Konik
!!!END: 2015-0m-dd
!!!EED: Marcin Konik
!!!EEV: 
!!!ONB: Encoded in vim by Marcin Konik
!!!CharacterEncoding: utf-8
!!!RDF**kern: l=long note in original notation
!!!RDF**kern: i=editorial accidental
!!muse2ps: z14jc180F
!!!COM: Anonim
!!!CDT: [?]
!!!TXO: Polish
!!!ODT: 
!!!GTL: Hymnbook D
!!!ARL: Opactwo św. Wojciecha, Staniątki 
!!!voices:	1
